img/social/youtube.svg

<svg width="30.156" height="20" fill="none" xmlns="http://www.w3.org/2000/svg"><path d="M23.89 0H6.26C2.8 0 0 2.62 0 5.86v8.27C0 17.37 2.8 20 6.26 20h17.63c3.46 0 6.26-2.63 6.26-5.87V5.86c0-3.24-2.8-5.86-6.26-5.86Zm-4.24 10.4-8.24 3.68c-.22.1-.48-.05-.48-.28V6.2c0-.23.26-.38.48-.28l8.25 3.92c.24.12.24.45-.01.56Z" fill="#FFF"/></svg>

<svg width="30.155670" height="20.000000" viewBox="0 0 30.1557 20" fill="none" xmlns="http://www.w3.org/2000/svg" xmlns:xlink="http://www.w3.org/1999/xlink">
	<desc>
			Created with Pixso.
	</desc>
	<defs/>
	<path d="M23.89 0L6.26 0C2.8 0 0 2.62 0 5.86L0 14.13C0 17.37 2.8 20 6.26 20L23.89 20C27.35 20 30.15 17.37 30.15 14.13L30.15 5.86C30.15 2.62 27.35 0 23.89 0ZM19.65 10.4L11.41 14.08C11.19 14.18 10.93 14.03 10.93 13.8L10.93 6.2C10.93 5.97 11.19 5.82 11.41 5.92L19.66 9.84C19.9 9.96 19.9 10.29 19.65 10.4Z" fill="#FFFFFF" fill-opacity="1.000000" fill-rule="nonzero"/>
</svg>
